svgs/lunar_settings.svg

<svg width="192" height="192" viewBox="0 0 192 192" fill="none" xmlns="http://www.w3.org/2000/svg">
<path d="M96.2354 136.364C74.014 136.364 56 118.292 56 96C56 73.7077 74.014 55.6363 96.2354 55.6363M96.2354 136.364C118.457 136.364 136.471 118.292 136.471 96C136.471 73.7077 118.457 55.6363 96.2354 55.6363M96.2354 136.364V55.6363" stroke="black" stroke-width="12" stroke-linecap="round" stroke-linejoin="round"/>
<path d="M96.244 170C122.594 169.997 146.942 155.893 160.117 133C173.294 110.104 173.294 81.8956 160.117 59C146.942 36.1072 122.594 22.0031 96.244 22V170Z" stroke="black" stroke-width="12" stroke-linecap="round" stroke-linejoin="round"/>
</svg>

<svg width="192" height="192" viewBox="0 0 192 192" fill="none" xmlns="http://www.w3.org/2000/svg"><path d="M96.235 136.364C74.014 136.364 56 118.292 56 96c0-22.292 18.014-40.364 40.235-40.364m0 80.728c22.222 0 40.236-18.072 40.236-40.364 0-22.292-18.014-40.364-40.236-40.364m0 80.728V55.636" stroke="#000" stroke-width="12" stroke-linecap="round" stroke-linejoin="round"/><path d="M96.244 170c26.35-.003 50.698-14.107 63.873-37a74.203 74.203 0 0 0 0-74c-13.175-22.893-37.523-36.997-63.873-37v148Z" stroke="#000" stroke-width="12" stroke-linecap="round" stroke-linejoin="round"/></svg>
